X: 75
M:C|
L:1/8
K:Bb
uA|vB2 (d/c/B) fBbB|B2 (d/c/B) AFcA|B2 (d/c/B) fBbB|cAFA BGGA|
uB|DGBG dGBG|DGBG AFcA|DGBG dGBG|cAFA BGGB|


